X:1
T:Title
%%score { ( 1 3 ) | ( 2 4 ) }
L:1/8
M:12/8
K:G
V:1 treble nm="Grand Piano"
V:3 treble 
V:2 treble 
V:4 treble 
V:1
 z6 z3[Q:1/4=100] DGA | B3 G3 c3 BAG | A6- A3 z3 | c3 A3 [Dd]3 [G^c][GB][Gc] | d6- d3 z3 | %5
 B3 G3 c3 [DGB][DFA][D=FG] | A6- A3 z3 | G3 z2 G G3 F2 A |[M:9/8] [CDA]3 [B,DG]6 | %9
[M:4/4] [G,B,D] [B,DG]2 [B,DG] [CDA][DGB] [DGB]2 | [CDA]D-[A,DF]D- [DA] [DB]3 | %11
 [DB][Ec] [CE]2 [Ec][DB] [B,D]2 | [DGB]A z [G^c]- [Gc] [Fd]3 | [Fc] [GB]2 [FA] [FA] [EG]3 | %14
 [E^G] [EA]2 [EA] [EA][DA] z [Ec]/[EB]/- | %15
 [EB]/[EA]/ .G3 G G2 F[Q:1/4=97][Q:1/4=94][Q:1/4=91][Q:1/4=88][Q:1/4=84][Q:1/4=81][Q:1/4=78] | %16
[M:3/4] A [CDA]2 [B,DG]3- | [B,DG] z z2 z2 |] %18
V:2
 z6 z3 [G,B,][G,B,D][G,CD] | [G,DG]3 [G,B,D]3 [G,EG]3 [G,DG][K:bass][F,D][E,^C] | %2
 [D,D]3 [E,^C]3 [D,D]3 [D,F,D][D,F,D][D,G,D] | [D,A,D]3 [D,F,D]3 [B,,G,]3 [A,,A,][A,,A,][A,,A,] | %4
 [D,A,]3 [E,A,]3 [F,C]3 [G,B,][K:treble][G,B,D][G,CD] | %5
 [G,DG]3 [G,B,D]3 [G,EG]3[K:bass] G,,A,,B,, | C,3 ^C,3 D,3 [A,,A,][B,,^G,][C,A,] | %7
 [D,B,D]3 z2 [E,A,^C] [E,A,C]3 [D,A,D]2 [D,=CD] |[M:9/8] G,,3 G,,6 | %9
[M:4/4] G,, G,,2 G,, G,,G,, G,,2 | D,D,C,B,, [A,,F,] [G,,G,]3 | %11
 [G,,G,][C,G,] [C,G,]2 [C,G,][G,,G,] [G,,G,]2 | .G,,2[K:treble] B[K:bass][A,,A,]- [A,,A,] [D,A,]3 | %13
 [D,D] [D,D]2 [D,C] [D,C] [E,B,]3 | [D,B,] [C,C]2 [^C,A,] [C,G,][D,F,] z [A,,A,]/[B,,^G,]/- | %15
 [B,,G,]/[B,,A,]/ .[D,B,D]3 [E,A,^C] [E,A,C]2 [D,A,D] |[M:3/4] [D,CD] G,,2 G,,3- | G,, z z2 z2 |] %18
V:3
 x12 | x12 | F3 G3 F3 AAB | x12 | F3 G3 A3 DGA | x12 | [CE]3 [G,E]3 [F,D]3 [Ec][EB][EA] | x12 | %8
[M:9/8] x9 |[M:4/4] x8 | z [B,G] z [G,G] z4 | x8 | z .[DF]3 z4 | x8 | x8 | x8 |[M:3/4] x6 | x6 |] %18
V:4
 x12 | x10[K:bass] x2 | x12 | x12 | x10[K:treble] x2 | x9[K:bass] x3 | x12 | x12 |[M:9/8] x9 | %9
[M:4/4] x8 | x8 | x8 | z .A,,3[K:treble][K:bass] z4 | x8 | x8 | x8 |[M:3/4] x6 | x6 |] %18

